X: 1
T:We Wish You A Merry Christmas
C:Traditional
M:3/4    %(3/4, 4/4, 6/8)
L:1/8    %(1/8, 1/4)
P:
K:
%V:1 treble clef
K:D    %(D, C)
A|"D"d2 de dc|"G"B2 B2 B2|"E7"e2 ef ed|"A7"c2 A2 A2
|"F#7"f2 fg fe|"Bm"d2 B2 AA|"G"B2 e2 "A7"c2|"D"d2||

0
